icons/rectangle.on.rectangle.svg

<?xml version="1.0" encoding="UTF-8"?>
<!--Generator: Apple Native CoreSVG 341-->
<!DOCTYPE svg
PUBLIC "-//W3C//DTD SVG 1.1//EN"
       "http://www.w3.org/Graphics/SVG/1.1/DTD/svg11.dtd">
<svg version="1.1" xmlns="http://www.w3.org/2000/svg" xmlns:xlink="http://www.w3.org/1999/xlink" viewBox="0 0 24.6582 19.7949">
 <g>
  <rect height="19.7949" opacity="0" width="24.6582" x="0" y="0"/>
  <path d="M19.4727 3.02734L19.4727 4.52148L17.9004 4.52148L17.9004 3.11523C17.9004 2.09961 17.3438 1.57227 16.377 1.57227L3.08594 1.57227C2.10938 1.57227 1.57227 2.09961 1.57227 3.11523L1.57227 12.1582C1.57227 13.1738 2.10938 13.6914 3.08594 13.6914L4.82422 13.6914L4.82422 15.2637L3.06641 15.2637C1.01562 15.2637 0 14.2578 0 12.2363L0 3.02734C0 1.01562 1.01562 0 3.06641 0L16.4062 0C18.4375 0 19.4727 1.01562 19.4727 3.02734Z" fill="white" fill-opacity="0.85"/>
  <path d="M7.89062 19.7852L21.2305 19.7852C23.2617 19.7852 24.2969 18.7695 24.2969 16.7578L24.2969 7.54883C24.2969 5.53711 23.2617 4.52148 21.2305 4.52148L7.89062 4.52148C5.83984 4.52148 4.82422 5.53711 4.82422 7.54883L4.82422 16.7578C4.82422 18.7793 5.83984 19.7852 7.89062 19.7852ZM7.91016 18.2129C6.93359 18.2129 6.39648 17.6953 6.39648 16.6797L6.39648 7.63672C6.39648 6.62109 6.93359 6.09375 7.91016 6.09375L21.2012 6.09375C22.168 6.09375 22.7246 6.62109 22.7246 7.63672L22.7246 16.6797C22.7246 17.6953 22.168 18.2129 21.2012 18.2129Z" fill="white" fill-opacity="0.85"/>
 </g>
</svg>

<svg xmlns="http://www.w3.org/2000/svg" viewBox="0 0 24.658 19.795"><g fill="#fff" fill-opacity=".85"><path d="M19.473 3.027v1.494H17.9V3.115c0-1.015-.556-1.543-1.523-1.543H3.086c-.977 0-1.514.528-1.514 1.543v9.043c0 1.016.537 1.533 1.514 1.533h1.738v1.573H3.066C1.016 15.264 0 14.258 0 12.236V3.027C0 1.016 1.016 0 3.066 0h13.34c2.032 0 3.067 1.016 3.067 3.027"/><path d="M7.89 19.785h13.34c2.032 0 3.067-1.015 3.067-3.027v-9.21c0-2.01-1.035-3.027-3.067-3.027H7.89c-2.05 0-3.066 1.016-3.066 3.028v9.209c0 2.021 1.016 3.027 3.067 3.027m.02-1.572c-.976 0-1.514-.518-1.514-1.533V7.637c0-1.016.538-1.543 1.514-1.543h13.291c.967 0 1.524.527 1.524 1.543v9.043c0 1.015-.557 1.533-1.524 1.533Z"/></g></svg>
